src/components/00-materials/images-raw/Castel.svg

<svg width="96" height="96" viewBox="0 0 96 96" fill="none" xmlns="http://www.w3.org/2000/svg">
<path d="M39.39 44.22V43.72H38.89H33.65H33.15V44.22V56.05V56.55H33.65H38.89H39.39V56.05V44.22ZM51.06 44.22V43.72H50.56H45.32H44.82V44.22V56.05V56.55H45.32H50.56H51.06V56.05V44.22ZM62.75 44.22V43.72H62.25H62.23H57H56.5V44.22V56.05V56.55H57H62.25H62.75V56.05V44.22ZM32.28 57.5V42.83H40.28V57.5H32.28ZM43.96 57.5V42.83H51.96V57.5H43.96ZM55.63 57.5V42.83H63.63V57.5H55.63Z" stroke="#00008F"/>
<path d="M48.0585 21.3401C47.8061 21.3459 47.5662 21.4509 47.3907 21.6323L47.3807 21.6426L47.3714 21.6534C47.3121 21.7222 47.2453 21.7842 47.1723 21.8383L47.1721 21.8385L28.4921 35.6985L28.29 35.8484V36.1V76.1V76.6H28.79H41.6H42.1V76.1V67.46C42.1 63.8282 44.7618 60.96 47.94 60.96C51.1173 60.96 53.78 63.8472 53.78 67.46V76.06V76.56H54.28H67.21H67.71V76.06V36.34V36.0918L67.5122 35.9417L49.0622 21.9417L49.0589 21.9392C48.9628 21.8675 48.8764 21.7836 48.802 21.6896M48.0585 21.3401L48.07 21.84L48.058 21.3401C48.0582 21.3401 48.0583 21.3401 48.0585 21.3401ZM48.0585 21.3401C48.2012 21.3368 48.3427 21.3667 48.4718 21.4274C48.6006 21.4881 48.7137 21.5778 48.802 21.6896M48.802 21.6896L48.41 22L48.8028 21.6906C48.8025 21.6903 48.8022 21.6899 48.802 21.6896ZM67.71 32.1423L78.3596 14.9501L88.99 32.1421V77.5H6.98999V32.1423L17.64 14.9495L28.29 32.1423V33.71V34.7026L29.0876 34.1118L46.6376 21.1118L46.6771 21.0825L46.7101 21.0462C46.8827 20.8562 47.0928 20.7042 47.3273 20.5998C47.5618 20.4955 47.8154 20.441 48.072 20.44L48.0728 20.44C48.3489 20.4384 48.6217 20.5005 48.8701 20.6212C49.1184 20.742 49.3357 20.9183 49.505 21.1365L49.5451 21.1883L49.5972 21.2279L66.9072 34.3979L67.71 35.0087V34V32.1423ZM26.89 76.6H27.39V76.1V35.17V32.51V32.3675L27.3149 32.2464L18.0649 17.3364L17.64 16.6516L17.2151 17.3364L7.96511 32.2464L7.88999 32.3675V32.51V76.1V76.6H8.38999H26.89ZM52.38 76.56H52.88V76.06V67.46C52.88 64.4487 50.7168 61.88 47.94 61.88C45.1632 61.88 43 64.4487 43 67.46V76.06V76.56H43.5H52.38ZM87.61 76.56H88.11V76.06V32.51V32.3675L88.0349 32.2464L78.7849 17.3364L78.36 16.6516L77.9351 17.3364L68.6851 32.2464L68.61 32.3675V32.51V76.06V76.56H69.11H87.61Z" stroke="#00008F"/>
<path d="M20.65 44.22V43.72H20.15H14.91H14.41V44.22V56.05V56.55H14.91H20.15H20.65V56.05V44.22ZM81.92 44.22V43.72H81.42H76.19H75.69V44.22V56.05V56.55H76.19H81.42H81.92V56.05V44.22ZM13.5 57.5V42.83H21.5V57.5H13.5ZM74.82 57.5V42.83H82.82V57.5H74.82Z" stroke="#00008F"/>
</svg>

<svg width="96" height="96" viewBox="0 0 96 96" fill="none" xmlns="http://www.w3.org/2000/svg"><path d="M39.39 44.22v-.5h-6.24v12.83h6.24V44.22zm11.67 0v-.5h-6.24v12.83h6.24V44.22zm11.69 0v-.5H56.5v12.83h6.25V44.22zM32.28 57.5V42.83h8V57.5h-8zm11.68 0V42.83h8V57.5h-8zm11.67 0V42.83h8V57.5h-8z" stroke="#00008F"/><path d="M48.059 21.34a.96.96 0 00-.668.292l-.01.01-.01.011c-.059.07-.126.131-.199.185h0l-18.68 13.86-.202.15V76.6H42.1v-9.14c0-3.632 2.662-6.5 5.84-6.5 3.177 0 5.84 2.887 5.84 6.5v9.1h13.93V36.092l-.198-.15-18.45-14-.003-.003a1.38 1.38 0 01-.257-.25m-.743-.349l.011.5-.012-.5s0 0 0 0zm0 0a.921.921 0 01.743.35m0 0l-.392.31.393-.31h-.001zM67.71 32.142L78.36 14.95l10.63 17.192V77.5h-82V32.142L17.64 14.95l10.65 17.193v2.561l.798-.591 17.55-13 .04-.03.032-.036a1.85 1.85 0 011.362-.606h0a1.8 1.8 0 011.433.697l.04.051.052.04 17.31 13.17.803.61v-2.866zM26.89 76.6h.5V32.368l-.075-.122-9.25-14.91-.425-.684-.425.684-9.25 14.91-.075.121V76.6h19zm25.49-.04h.5v-9.1c0-3.011-2.163-5.58-4.94-5.58-2.777 0-4.94 2.569-4.94 5.58v9.1h9.38zm35.23 0h.5V32.368l-.075-.122-9.25-14.91-.425-.684-.425.684-9.25 14.91-.075.121V76.56h19z" stroke="#00008F"/><path d="M20.65 44.22v-.5h-6.24v12.83h6.24V44.22zm61.27 0v-.5h-6.23v12.83h6.23V44.22zM13.5 57.5V42.83h8V57.5h-8zm61.32 0V42.83h8V57.5h-8z" stroke="#00008F"/></svg>
